X:911
T:Mi'N Seo 'Nam Onar 
C:Joe Buchanan's Scottish Tome - Page 524.1
I:524 1
C:Gaelic Waltz
R:Waltz
Z:Carl Allison
L:1/4
M:3/4
K:F
c | A2 G | F3 | G A | F2 D | C3 | A,3 A | A2 G | F3 |
F2 A | c2 d | c3- | c2 A | B2 d | c3 | c | A2 c | A> G F |
G3 | A2 F | F> E D | C3 | A,2 C | F2 G | F3- | F3 |]

